packages/ui-icons/svg/Line/group.svg

<svg viewBox="0 0 1920 1920" version="1.1" xmlns="http://www.w3.org/2000/svg">
    <path d="M1807.05882,1270.09129 C1738.39059,1318.54306 1618.33412,1386.64659 1463.15294,1428.66071 C1444.29176,1326.11012 1370.42824,1241.29129 1267.08706,1209.55482 C1175.37882,1181.31953 1081.97647,1161.216 987.557647,1147.88894 C1059.50118,1087.12659 1109.19529,1002.08188 1123.53882,904.726588 C1145.44941,903.936 1168.37647,903.484235 1194.57882,903.484235 C1360.60235,904.387765 1525.72235,929.799529 1685.53412,978.928941 C1758.15529,1001.29129 1807.05882,1066.68424 1807.05882,1141.79012 L1807.05882,1270.09129 Z M1355.29412,1608.91482 C1241.11059,1689.66776 1025.05412,1807.01365 734.117647,1807.01365 C604.687059,1807.01365 354.974118,1780.81129 112.941176,1608.91482 L112.941176,1480.16188 C112.941176,1405.16894 161.957647,1339.66306 234.691765,1317.30071 C397.101176,1267.60659 565.044706,1242.42071 734.117647,1242.42071 L742.588235,1242.42071 C909.176471,1243.21129 1074.40941,1268.51012 1233.99529,1317.52659 C1306.50353,1339.776 1355.29412,1405.16894 1355.29412,1480.16188 L1355.29412,1608.91482 Z M451.764706,847.013647 L451.764706,734.072471 C451.764706,578.439529 578.371765,451.719529 734.117647,451.719529 C889.863529,451.719529 1016.47059,578.439529 1016.47059,734.072471 L1016.47059,847.013647 C1016.47059,1002.75953 889.863529,1129.36659 734.117647,1129.36659 C578.371765,1129.36659 451.764706,1002.75953 451.764706,847.013647 L451.764706,847.013647 Z M1185.88235,112.896 C1261.10118,112.896 1332.02824,142.373647 1385.44941,195.794824 C1438.75765,249.216 1468.23529,320.030118 1468.23529,395.248941 L1468.23529,508.190118 C1468.23529,663.936 1341.62824,790.543059 1185.88235,790.543059 C1166.23059,790.543059 1147.48235,787.945412 1129.41176,784.105412 L1129.41176,734.072471 C1129.41176,577.648941 1037.36471,443.361882 905.223529,379.324235 C913.581176,231.258353 1035.67059,112.896 1185.88235,112.896 L1185.88235,112.896 Z M1718.73882,870.957176 C1627.36941,842.947765 1534.19294,822.731294 1438.98353,809.291294 C1525.15765,736.783059 1581.17647,629.488941 1581.17647,508.190118 L1581.17647,395.248941 C1581.17647,289.874824 1540.06588,190.599529 1465.29882,115.945412 C1390.53176,41.1783529 1291.36941,-0.0451764706 1185.88235,-0.0451764706 C985.185882,-0.0451764706 820.743529,150.957176 795.670588,345.103059 C775.454118,341.827765 755.237647,338.778353 734.117647,338.778353 C516.141176,338.778353 338.823529,516.208941 338.823529,734.072471 L338.823529,847.013647 C338.823529,968.312471 394.842353,1075.60659 481.129412,1148.22776 C386.823529,1161.44188 292.969412,1181.31953 201.6,1209.32894 C81.0917647,1246.37365 0,1355.24894 0,1480.16188 L0,1665.83718 L22.5882353,1682.77835 C297.825882,1889.12188 586.390588,1919.95482 734.117647,1919.95482 C1078.36235,1919.95482 1327.73647,1771.32424 1445.64706,1682.77835 L1468.23529,1665.83718 L1468.23529,1545.32894 C1673.44941,1494.73129 1823.88706,1399.296 1897.41176,1343.95482 L1920,1327.01365 L1920,1141.79012 C1920,1016.76424 1839.02118,907.888941 1718.73882,870.957176 L1718.73882,870.957176 Z" stroke="none" stroke-width="1" fill-rule="evenodd"/>
</svg>

<svg viewBox="0 0 1920 1920" version="1.1" xmlns="http://www.w3.org/2000/svg">
    <path d="M1807.059 1270.091c-68.668 48.452-188.725 116.556-343.906 158.57-18.861-102.55-92.725-187.37-196.066-219.106-91.708-28.235-185.11-48.339-279.53-61.666 71.944-60.762 121.638-145.807 135.982-243.162 21.91-.791 44.837-1.243 71.04-1.243 166.023.904 331.143 26.316 490.955 75.445 72.621 22.362 121.525 87.755 121.525 162.861v128.301zm-451.765 338.824c-114.183 80.753-330.24 198.099-621.176 198.099-129.43 0-379.144-26.203-621.177-198.1v-128.752c0-74.993 49.017-140.499 121.75-162.861 162.41-49.694 330.354-74.88 499.427-74.88h8.47c166.588.79 331.821 26.09 491.407 75.106 72.509 22.249 121.3 87.642 121.3 162.635v128.753zm-903.53-761.901V734.072c0-155.632 126.608-282.352 282.354-282.352 155.746 0 282.353 126.72 282.353 282.352v112.942c0 155.746-126.607 282.353-282.353 282.353S451.765 1002.76 451.765 847.014zm734.118-734.118c75.22 0 146.146 29.478 199.567 82.899 53.309 53.421 82.786 124.235 82.786 199.454V508.19c0 155.746-126.607 282.353-282.353 282.353-19.651 0-38.4-2.598-56.47-6.438v-50.033c0-156.423-92.047-290.71-224.188-354.748 8.357-148.066 130.447-266.428 280.658-266.428zm532.857 758.061c-91.37-28.01-184.546-48.226-279.755-61.666 86.174-72.508 142.192-179.802 142.192-301.1V395.248c0-105.374-41.11-204.65-115.877-279.304-74.767-74.767-173.93-115.99-279.417-115.99-200.696 0-365.138 151.002-390.211 345.148-20.217-3.275-40.433-6.325-61.553-6.325-217.977 0-395.294 177.43-395.294 395.294v112.942c0 121.298 56.018 228.593 142.305 301.214-94.305 13.214-188.16 33.092-279.529 61.1C81.092 1246.375 0 1355.249 0 1480.163v185.675l22.588 16.941c275.238 206.344 563.803 237.177 711.53 237.177 344.244 0 593.618-148.63 711.53-237.177l22.587-16.94v-120.51c205.214-50.597 355.652-146.032 429.177-201.373l22.588-16.941V1141.79c0-125.026-80.979-233.901-201.261-270.833z" stroke="none" stroke-width="1" fill-rule="evenodd"/>
</svg>
